X: 1
T: Duncan Grey
R: march
S: handwritten page in Concord Slow Scottish Session collection
Z: 2015 John Chambers <jc:trillian.mit.edu>
M: 2/4
L: 1/8
K: G
G2 "A"|\
"G"D2G2 F2G2 | "C"A2B2 "D7"F4 | "G"G4 "D7"A3c | "G"B2G2 G2D2 |\
"G"D2G2 F2G2 | "C"A2B2 "D7"F4 | "G"G4 "D7"A3c | "G"B2G2 G2 |]
z2 "G"|\
"G"B2d2 d2cB | "C"c2c2 c4 | "Am"c3B "A7"A2G2 | "D"F2E2 D4 |\
"G"d2B2 "D"c2A2 | "G"B2G2 "D"A4 | "G"G4 "D7"A3c | "G"B2G2 G2 |]
